svgs/regular/shelves-empty.svg

<svg xmlns="http://www.w3.org/2000/svg" viewBox="0 0 640 512"><!--! Font Awesome Pro 6.6.0 by @fontawesome - https://fontawesome.com License - https://fontawesome.com/license (Commercial License) Copyright 2024 Fonticons, Inc. --><path d="M48 24C48 10.7 37.3 0 24 0S0 10.7 0 24L0 184 0 440l0 48c0 13.3 10.7 24 24 24s24-10.7 24-24l0-24 544 0 0 24c0 13.3 10.7 24 24 24s24-10.7 24-24l0-48 0-256 0-160c0-13.3-10.7-24-24-24s-24 10.7-24 24l0 136L48 160 48 24zm0 184l544 0 0 208L48 416l0-208z"/></svg>

<svg xmlns="http://www.w3.org/2000/svg" viewBox="0 0 640 512"><!--! Font Awesome Pro 6.5.2 by @fontawesome - https://fontawesome.com License - https://fontawesome.com/license (Commercial License) Copyright 2024 Fonticons, Inc. --><path d="M48 24C48 10.7 37.3 0 24 0S0 10.7 0 24V184 440v48c0 13.3 10.7 24 24 24s24-10.7 24-24V464H592v24c0 13.3 10.7 24 24 24s24-10.7 24-24V440 184 24c0-13.3-10.7-24-24-24s-24 10.7-24 24V160H48V24zm0 184H592V416H48V208z"/></svg>
